X: 20723
T: Johnny Cope
R: hornpipe
M: 4/4
K: Aminor
E2|A4 ABcd|e2A2 A2GE|G4 GABc|d3G BAGE|
A4 ABcd|e2A2 BAGE|G2g2 edcB|A4 A2:|
|:AB|c3d c2G2|cde^f g4|B2G2 d2G2|Bcde d2cB|
cBcd e^fga|gedc B2AB|G2g2 edcB|A4 A2:|
|:eg|a4 a2ga|b2a2 a2ge|dega g3a|b2ab g2eg|
a4 a2 ga|b2a4 ge|g2d2 edcB|A4 A2:|
|:E2|AGAB cBcd|e2A2 BAGE|GEGA B2ge|dedc B2AG|
cBcd e^fga|gedc B2AB|G2g2 edcB|A4 A2:|

